X:1
T:title
M:4/4
Q:120
L:1/8
R:Reel
K:C
 _b'2 _cA _G3 _a | Db2 _B2 _e2F |  ^D2 _b3 _a'2 _E | g3g'3 _dD |  ^e4f ^f' ^g'b' |  _A ^F2 ^a'4D |  ^d2F _A _b2 ^g ^d |  _B4 _g4 | 